source/img/icon-clock.svg

<svg width="24" height="24" viewBox="0 0 24 24" fill="none" xmlns="http://www.w3.org/2000/svg">
<path d="M12 2C6.48653 2 2 6.48652 2 12C2 17.5135 6.48653 22 12 22C17.5135 22 22 17.5135 22 12C22 6.48652 17.5135 2 12 2ZM12 3.57895C16.6601 3.57895 20.4211 7.33985 20.4211 12C20.4211 16.6601 16.6601 20.421 12 20.421C7.33987 20.421 3.57895 16.6601 3.57895 12C3.57895 7.33985 7.33987 3.57895 12 3.57895ZM12 4.89473C11.564 4.89473 11.2105 5.24821 11.2105 5.68421V12C11.2105 12.292 11.3696 12.546 11.6053 12.6826L16.6217 15.5773C16.9993 15.7953 17.481 15.6671 17.699 15.2895C17.9171 14.9119 17.7888 14.4302 17.4112 14.2122L12.7895 11.5477V5.68421C12.7895 5.24821 12.436 4.89473 12 4.89473Z" fill="white"/>
</svg>

<svg width="24" height="24" viewBox="0 0 24 24" fill="none" xmlns="http://www.w3.org/2000/svg"><path d="M12 2C6.487 2 2 6.487 2 12c0 5.514 4.487 10 10 10 5.514 0 10-4.486 10-10 0-5.513-4.486-10-10-10zm0 1.579A8.41 8.41 0 0120.421 12 8.41 8.41 0 0112 20.421 8.41 8.41 0 013.579 12 8.41 8.41 0 0112 3.579zm0 1.316a.79.79 0 00-.79.79V12c0 .292.16.546.395.683l5.017 2.894a.788.788 0 10.79-1.365l-4.622-2.664V5.684a.79.79 0 00-.79-.79z" fill="#fff"/></svg>
